SVG-Logos/Observability/Grafana/Icons/grafana-beyla-icon.svg

<svg xmlns="http://www.w3.org/2000/svg" width="175" height="219" viewBox="0 0 175 219" fill="none">
<path id="Vector" d="M142.36 108.1C158.46 98.1 169.18 80.27 169.18 59.92V57.48C169.18 26.17 143.8 0.790039 112.49 0.790039H9.4798C4.5498 0.790039 0.549805 4.79003 0.549805 9.72003V209.22C0.549805 214.15 4.5498 218.15 9.4798 218.15H20.8498C25.0198 218.15 28.4098 214.77 28.4098 210.59V76.05C28.4098 72.36 31.3998 69.37 35.0898 69.37C38.7798 69.37 41.7698 72.36 41.7698 76.05V210.59C41.7698 214.76 45.1498 218.15 49.3298 218.15C53.4998 218.15 56.8898 214.77 56.8898 210.59V102.52C56.8898 98.83 59.8798 95.8401 63.5698 95.8401C67.2598 95.8401 70.2498 98.83 70.2498 102.52V210.59C70.2498 214.76 73.6298 218.15 77.8098 218.15C81.9798 218.15 85.3698 214.77 85.3698 210.59V33.82C85.3698 30.13 88.3598 27.14 92.0498 27.14C95.7398 27.14 98.7298 30.13 98.7298 33.82V210.59C98.7298 214.76 102.11 218.15 106.29 218.15C110.46 218.15 113.85 214.77 113.85 210.59V142.49C113.85 138.8 116.84 135.81 120.53 135.81C124.22 135.81 127.21 138.8 127.21 142.49V207.44C127.21 212.74 132.52 216.37 137.48 214.5C158.91 206.41 174.16 185.72 174.16 161.46V159.02C174.16 136.66 161.2 117.32 142.39 108.1H142.36Z" fill="url(#paint0_linear_41384_7830)"/>
<defs>
<linearGradient id="paint0_linear_41384_7830" x1="18.6798" y1="273.33" x2="100.7" y2="54.2701" gradientUnits="userSpaceOnUse">
<stop stop-color="#FFEA00"/>
<stop offset="1" stop-color="#E95A28"/>
</linearGradient>
</defs>
</svg>

<svg xmlns="http://www.w3.org/2000/svg" fill="none" viewBox="0 0 175 219"><path fill="url(#a)" d="M142.36 108.1c16.1-10 26.82-27.83 26.82-48.18v-2.44c0-31.31-25.38-56.69-56.69-56.69H9.48C4.55.79.55 4.79.55 9.72v199.5c0 4.93 4 8.93 8.93 8.93h11.37a7.56 7.56 0 0 0 7.56-7.56V76.05a6.68 6.68 0 0 1 6.68-6.68 6.68 6.68 0 0 1 6.68 6.68v134.54a7.56 7.56 0 0 0 15.12 0V102.52c0-3.69 2.99-6.68 6.68-6.68 3.69 0 6.68 2.99 6.68 6.68v108.07a7.56 7.56 0 0 0 15.12 0V33.82a6.68 6.68 0 0 1 6.68-6.68 6.68 6.68 0 0 1 6.68 6.68v176.77a7.56 7.56 0 0 0 15.12 0v-68.1a6.68 6.68 0 0 1 6.68-6.68 6.68 6.68 0 0 1 6.68 6.68v64.95c0 5.3 5.31 8.93 10.27 7.06 21.43-8.09 36.68-28.78 36.68-53.04v-2.44c0-22.36-12.96-41.7-31.77-50.92h-.03Z"/><defs><linearGradient id="a" x1="18.68" x2="100.7" y1="273.33" y2="54.27" gradientUnits="userSpaceOnUse"><stop stop-color="#FFEA00"/><stop offset="1" stop-color="#E95A28"/></linearGradient></defs></svg>
